src/topics/icons/basecamp.svg

<svg height="213" preserveAspectRatio="xMidYMid" viewBox="0 0 256 213" width="256" xmlns="http://www.w3.org/2000/svg"><path d="m128.300525 0c-68.6408849 0-122.41721901 87.3292379-127.50520205 161.089363 21.53970705 37.383652 73.48228345 51.435515 127.50520205 51.435515 54.019446 0 105.965496-14.051863 127.494784-51.435515-5.087984-73.7601251-58.857372-161.089363-127.494784-161.089363" fill="#b6deff"/><path d="m237.860602 143.519325s-15.159758-32.774946-30.569574-51.897427c-15.420235-19.129427-34.250982-39.9606367-45.385503-39.9606367-11.127576 0-42.235469 55.0787187-56.506133 55.0787187-14.2741367 0-21.6925201-24.9675836-39.2417204-24.9675836-17.5561462 0-45.4480178 60.2083786-45.4480178 60.2083786l-1.8893261 10.207223s9.6897425 42.961331 111.0638973 42.961331c101.377628 0 109.480198-42.256307 109.480198-42.256307z" fill="#6c6"/><path d="m106.986565 130.24542c-15.7432268 0-23.8145391-15.534845-28.1905519-25.12387-3.9349384-8.6374156-4.6156515-22.2759886-15.78143-22.6580214 1.0974763-.4341283 2.1532761-.6911322 3.1430885-.6911322 17.5492003 0 24.9675837 24.9675836 39.2417204 24.9675836 14.270664 0 45.378557-55.0787187 56.506133-55.0787187 2.097707 0 4.459365.7397545 7.022458 2.0560313-1.896272-.2500578-4.32739-.0764065-6.199351 1.8025005-3.598055 3.5980549-36.251445 74.7256269-55.742067 74.7256269" fill="#17ad49"/></svg>

<?xml version="1.0" encoding="UTF-8" standalone="no"?>
<svg width="256px" height="213px" viewBox="0 0 256 213" version="1.1" xmlns="http://www.w3.org/2000/svg" xmlns:xlink="http://www.w3.org/1999/xlink" preserveAspectRatio="xMidYMid">
	<g>
		<path d="M128.300525,0 C59.6596401,0 5.88330599,87.3292379 0.795322946,161.089363 C22.33503,198.473015 74.2776064,212.524878 128.300525,212.524878 C182.319971,212.524878 234.266021,198.473015 255.795309,161.089363 C250.707325,87.3292379 196.937937,0 128.300525,0" fill="#B6DEFF"></path>
		<path d="M237.860602,143.519325 C237.860602,143.519325 222.700844,110.744379 207.291028,91.621898 C191.870793,72.492471 173.040046,51.6612613 161.905525,51.6612613 C150.777949,51.6612613 119.670056,106.73998 105.399392,106.73998 C91.1252553,106.73998 83.7068719,81.7723964 66.1576716,81.7723964 C48.6015254,81.7723964 20.7096538,141.980775 20.7096538,141.980775 L18.8203277,152.187998 C18.8203277,152.187998 28.5100702,195.149329 129.884225,195.149329 C231.261853,195.149329 239.364423,152.893022 239.364423,152.893022 L237.860602,143.519325" fill="#66CC66"></path>
		<path d="M106.986565,130.24542 C91.2433382,130.24542 83.1720259,114.710575 78.7960131,105.12155 C74.8610747,96.4841344 74.1803616,82.8455614 63.0145831,82.4635286 C64.1120594,82.0294003 65.1678592,81.7723964 66.1576716,81.7723964 C83.7068719,81.7723964 91.1252553,106.73998 105.399392,106.73998 C119.670056,106.73998 150.777949,51.6612613 161.905525,51.6612613 C164.003232,51.6612613 166.36489,52.4010158 168.927983,53.7172926 C167.031711,53.4672348 164.600593,53.6408861 162.728632,55.5197931 C159.130577,59.117848 126.477187,130.24542 106.986565,130.24542" fill="#17AD49"></path>
	</g>
</svg>
